Newaita-dark/mimetypes/22/text-x-sass.svg

<?xml version="1.0" encoding="UTF-8"?>
<svg xmlns="http://www.w3.org/2000/svg" xmlns:xlink="http://www.w3.org/1999/xlink" width="22px" height="22px" viewBox="0 0 22 22" version="1.1">
<defs>
<linearGradient id="linear0" gradientUnits="userSpaceOnUse" x1="254" y1="233.5" x2="254" y2="254.666672" gradientTransform="matrix(0.0429729,0,0,0.0429729,0.454796,9.239165)">
<stop offset="0" style="stop-color:rgb(0%,0%,0%);stop-opacity:0.27451;"/>
<stop offset="1" style="stop-color:rgb(0%,0%,0%);stop-opacity:0;"/>
</linearGradient>
<radialGradient id="radial0" gradientUnits="userSpaceOnUse" cx="450.908936" cy="189.579361" fx="450.908936" fy="189.579361" r="21.166656" gradientTransform="matrix(0.000000119742,-0.0537161,-0.0966889,-0.0000000698078,34.020641,43.721794)">
<stop offset="0" style="stop-color:rgb(0%,0%,0%);stop-opacity:0.313726;"/>
<stop offset="0.222222" style="stop-color:rgb(0%,0%,0%);stop-opacity:0.27451;"/>
<stop offset="1" style="stop-color:rgb(0%,0%,0%);stop-opacity:0;"/>
</radialGradient>
<radialGradient id="radial1" gradientUnits="userSpaceOnUse" cx="450.908936" cy="189.579361" fx="450.908936" fy="189.579361" r="21.166656" gradientTransform="matrix(-0.000000119742,0.0537161,0.0966889,0.0000000698078,-12.645222,-5.17514)">
<stop offset="0" style="stop-color:rgb(0%,0%,0%);stop-opacity:0.313726;"/>
<stop offset="0.222222" style="stop-color:rgb(0%,0%,0%);stop-opacity:0.27451;"/>
<stop offset="1" style="stop-color:rgb(0%,0%,0%);stop-opacity:0;"/>
</radialGradient>
<radialGradient id="radial2" gradientUnits="userSpaceOnUse" cx="450.908936" cy="189.579361" fx="450.908936" fy="189.579361" r="21.166656" gradientTransform="matrix(-0.000000119742,-0.0537161,0.0966889,-0.0000000698078,-12.645222,43.721794)">
<stop offset="0" style="stop-color:rgb(0%,0%,0%);stop-opacity:0.313726;"/>
<stop offset="0.222222" style="stop-color:rgb(0%,0%,0%);stop-opacity:0.27451;"/>
<stop offset="1" style="stop-color:rgb(0%,0%,0%);stop-opacity:0;"/>
</radialGradient>
<radialGradient id="radial3" gradientUnits="userSpaceOnUse" cx="450.908936" cy="189.579361" fx="450.908936" fy="189.579361" r="21.166656" gradientTransform="matrix(0.000000119742,0.0537161,-0.0966889,0.0000000698078,34.020641,-5.175142)">
<stop offset="0" style="stop-color:rgb(0%,0%,0%);stop-opacity:0.313726;"/>
<stop offset="0.222222" style="stop-color:rgb(0%,0%,0%);stop-opacity:0.27451;"/>
<stop offset="1" style="stop-color:rgb(0%,0%,0%);stop-opacity:0;"/>
</radialGradient>
<linearGradient id="linear1" gradientUnits="userSpaceOnUse" x1="940" y1="1695.118164" x2="940" y2="175.118118" gradientTransform="matrix(0.0113699,0,0,0.0113699,0,0)">
<stop offset="0" style="stop-color:rgb(95.686275%,56.078434%,69.411767%);stop-opacity:1;"/>
<stop offset="1" style="stop-color:rgb(97.254902%,73.333335%,81.568629%);stop-opacity:1;"/>
</linearGradient>
<linearGradient id="linear2" gradientUnits="userSpaceOnUse" x1="249.189423" y1="233.5" x2="249.189423" y2="254.666687" gradientTransform="matrix(0.0205522,0,0,0.0752024,10.341665,-11.248126)">
<stop offset="0" style="stop-color:rgb(0%,0%,0%);stop-opacity:0.27451;"/>
<stop offset="1" style="stop-color:rgb(0%,0%,0%);stop-opacity:0;"/>
</linearGradient>
<linearGradient id="linear3" gradientUnits="userSpaceOnUse" x1="338.666656" y1="233.5" x2="338.666656" y2="-168.666672" gradientTransform="matrix(0.0429729,0,0,0.0429729,0,9.239163)">
<stop offset="0" style="stop-color:rgb(92.54902%,25.098041%,47.843137%);stop-opacity:1;"/>
<stop offset="1" style="stop-color:rgb(94.117647%,38.431373%,57.254905%);stop-opacity:1;"/>
</linearGradient>
<linearGradient id="linear4" gradientUnits="userSpaceOnUse" x1="248.708344" y1="233.5" x2="243.416672" y2="-168.666672" gradientTransform="matrix(1.141048,0,0,1.141048,-31.893377,-8.591855)">
<stop offset="0" style="stop-color:rgb(92.54902%,25.098041%,47.843137%);stop-opacity:1;"/>
<stop offset="1" style="stop-color:rgb(94.117647%,38.431373%,57.254905%);stop-opacity:1;"/>
</linearGradient>
</defs>
<g id="surface1">
<path style=" stroke:none;fill-rule:nonzero;fill:url(#linear0);" d="M 5.457031 19.273438 L 15.917969 19.273438 L 15.917969 20.183594 L 5.457031 20.183594 Z M 5.457031 19.273438 "/>
<path style=" stroke:none;fill-rule:nonzero;fill:url(#radial0);" d="M 15.917969 19.273438 L 17.738281 19.273438 L 17.738281 18.363281 L 15.917969 18.363281 Z M 15.917969 19.273438 "/>
<path style=" stroke:none;fill-rule:nonzero;fill:url(#radial1);" d="M 5.457031 19.273438 L 3.636719 19.273438 L 3.636719 20.183594 L 5.457031 20.183594 Z M 5.457031 19.273438 "/>
<path style=" stroke:none;fill-rule:nonzero;fill:url(#radial2);" d="M 5.457031 19.273438 L 3.636719 19.273438 L 3.636719 18.363281 L 5.457031 18.363281 Z M 5.457031 19.273438 "/>
<path style=" stroke:none;fill-rule:nonzero;fill:url(#radial3);" d="M 15.917969 19.273438 L 17.738281 19.273438 L 17.738281 20.183594 L 15.917969 20.183594 Z M 15.917969 19.273438 "/>
<path style=" stroke:none;fill-rule:nonzero;fill:url(#linear1);" d="M 12.746094 1.992188 L 4.546875 1.992188 C 4.042969 1.992188 3.636719 2.398438 3.636719 2.902344 L 3.636719 18.363281 C 3.636719 18.867188 4.042969 19.273438 4.546875 19.273438 L 16.828125 19.273438 C 17.332031 19.273438 17.738281 18.867188 17.738281 18.363281 L 17.738281 6.980469 Z M 12.746094 1.992188 "/>
<path style=" stroke:none;fill-rule:nonzero;fill:url(#linear2);" d="M 12.734375 6.3125 L 17.054688 6.3125 L 17.738281 6.992188 L 17.738281 7.902344 L 12.734375 7.902344 Z M 12.734375 6.3125 "/>
<path style=" stroke:none;fill-rule:nonzero;fill:rgb(0%,0%,0%);fill-opacity:0.235294;" d="M 3.636719 18.011719 L 3.636719 18.363281 C 3.636719 18.867188 4.042969 19.273438 4.546875 19.273438 L 16.828125 19.273438 C 17.332031 19.273438 17.738281 18.867188 17.738281 18.363281 L 17.738281 18.011719 C 17.738281 18.515625 17.332031 18.921875 16.828125 18.921875 L 4.546875 18.921875 C 4.042969 18.921875 3.636719 18.515625 3.636719 18.011719 Z M 3.636719 18.011719 "/>
<path style=" stroke:none;fill-rule:nonzero;fill:rgb(100%,100%,100%);fill-opacity:0.392157;" d="M 4.546875 1.992188 C 4.042969 1.992188 3.636719 2.398438 3.636719 2.902344 L 3.636719 3.242188 C 3.636719 2.738281 4.042969 2.332031 4.546875 2.332031 L 12.746094 2.332031 L 17.738281 7.320312 L 17.738281 6.980469 L 12.746094 1.992188 Z M 4.546875 1.992188 "/>
<path style=" stroke:none;fill-rule:nonzero;fill:url(#linear3);" d="M 17.738281 6.980469 L 12.746094 1.992188 L 12.746094 6.070312 C 12.746094 6.574219 13.152344 6.980469 13.65625 6.980469 Z M 17.738281 6.980469 "/>
<path style=" stroke:none;fill-rule:nonzero;fill:rgb(0%,0%,0%);fill-opacity:0.235294;" d="M 12.746094 5.855469 L 12.746094 6.070312 C 12.746094 6.574219 13.152344 6.980469 13.65625 6.980469 L 17.738281 6.980469 L 17.523438 6.765625 L 13.65625 6.765625 C 13.152344 6.765625 12.746094 6.359375 12.746094 5.855469 Z M 12.746094 5.855469 "/>
<path style=" stroke:none;fill-rule:nonzero;fill:rgb(100%,100%,100%);fill-opacity:0.392157;" d="M 12.746094 1.992188 L 12.746094 2.332031 L 17.394531 6.980469 L 17.738281 6.980469 Z M 12.746094 1.992188 "/>
<path style=" stroke:none;fill-rule:nonzero;fill:rgb(12.941177%,12.941177%,12.941177%);fill-opacity:1;" d="M 12.746094 1.925781 C 12.710938 1.925781 12.683594 1.957031 12.683594 1.992188 L 12.683594 6.070312 C 12.683594 6.609375 13.117188 7.042969 13.65625 7.042969 L 17.738281 7.042969 C 17.761719 7.042969 17.785156 7.027344 17.796875 7.003906 C 17.804688 6.980469 17.800781 6.953125 17.78125 6.933594 L 12.792969 1.945312 C 12.78125 1.933594 12.765625 1.925781 12.746094 1.925781 Z M 12.8125 2.148438 L 17.582031 6.914062 L 13.65625 6.914062 C 13.1875 6.914062 12.8125 6.539062 12.8125 6.070312 Z M 12.8125 2.148438 "/>
<path style=" stroke:none;fill-rule:nonzero;fill:rgb(12.941177%,12.941177%,12.941177%);fill-opacity:1;" d="M 4.546875 1.925781 C 4.007812 1.925781 3.574219 2.363281 3.574219 2.902344 L 3.574219 18.363281 C 3.574219 18.902344 4.007812 19.335938 4.546875 19.335938 L 16.828125 19.335938 C 17.367188 19.335938 17.800781 18.902344 17.800781 18.363281 L 17.800781 6.980469 C 17.800781 6.964844 17.792969 6.945312 17.78125 6.933594 L 12.792969 1.945312 C 12.78125 1.933594 12.765625 1.925781 12.746094 1.925781 Z M 4.546875 2.054688 L 12.722656 2.054688 L 17.671875 7.007812 L 17.671875 18.363281 C 17.671875 18.832031 17.296875 19.207031 16.828125 19.207031 L 4.546875 19.207031 C 4.078125 19.207031 3.703125 18.832031 3.703125 18.363281 L 3.703125 2.902344 C 3.703125 2.429688 4.078125 2.054688 4.546875 2.054688 Z M 4.546875 2.054688 "/>
<path style="fill-rule:nonzero;fill:url(#linear4);stroke-width:3;stroke-linecap:butt;stroke-linejoin:miter;stroke:rgb(12.941177%,12.941177%,12.941177%);stroke-opacity:1;stroke-miterlimit:4;" d="M 324.968967 52.701708 C 317.969635 52.792609 311.879308 54.337916 306.788885 56.701327 C 304.879976 53.156211 302.971068 50.065597 302.698366 47.702186 C 302.334765 45.066074 301.880263 43.429867 302.334765 40.157452 C 302.789267 36.975938 304.698176 32.430917 304.698176 32.067315 C 304.698176 31.703714 304.334574 30.067506 300.244055 29.976606 C 296.244437 29.976606 292.699321 30.79471 292.33572 31.794614 C 291.972118 32.794519 291.154014 35.067029 290.608612 37.52134 C 289.972309 40.975556 282.518475 53.428912 278.337057 59.973741 C 276.97355 57.42853 275.791845 55.24692 275.610044 53.428912 C 275.246443 50.701899 274.79194 49.065692 275.246443 45.884178 C 275.610044 42.611763 277.609853 38.066742 277.609853 37.703141 C 277.609853 37.339539 277.155351 35.703332 273.155733 35.703332 C 269.065215 35.612431 265.610999 36.430535 265.247397 37.43044 C 264.792895 38.430344 264.429294 40.884655 263.52029 43.157165 C 262.702186 45.520576 252.884942 66.24587 250.33973 71.699894 C 249.067124 74.426907 247.885419 76.699417 247.067315 78.153823 C 246.249212 79.69913 247.067315 78.244724 246.976415 78.426525 C 246.249212 79.69913 245.88561 80.426334 245.88561 80.426334 L 245.88561 80.517234 C 245.340208 81.426238 244.703905 82.335242 244.431203 82.335242 C 244.249403 82.335242 243.885801 79.790031 244.522104 76.426716 C 245.97651 69.154683 249.521626 57.883032 249.521626 57.51943 C 249.521626 57.337629 250.157929 55.33782 247.249116 54.337916 C 244.340303 53.338011 243.340399 54.974219 243.067697 54.974219 C 242.885896 54.974219 242.704096 55.610522 242.704096 55.610522 C 242.704096 55.610522 245.88561 42.975365 236.613768 42.975365 C 230.796142 42.975365 222.796906 48.974792 218.797288 54.428816 C 216.342977 55.792322 210.979852 58.519335 205.344027 61.428148 C 203.162417 62.609853 200.889907 63.791559 198.799197 64.882363 L 198.344695 64.427861 C 187.163945 52.97441 166.438651 44.975174 167.256755 29.613004 C 167.620357 24.068079 169.620166 9.342213 207.162035 -8.474268 C 237.886374 -23.018333 262.429485 -19.018715 266.701804 -10.110475 C 272.792131 2.615582 253.612145 26.249689 221.6152 29.613004 C 209.525446 30.88561 203.071517 26.43149 201.435309 24.795283 C 199.799102 22.977274 199.526401 22.886374 198.890098 23.249976 C 197.890193 23.795378 198.526496 25.340685 198.890098 26.249689 C 199.890002 28.6131 203.79872 32.794519 210.43445 34.885228 C 216.342977 36.794137 230.614341 37.794041 247.885419 31.431012 C 267.156306 24.24988 282.245774 4.433591 277.882554 -12.110284 C 273.337534 -28.92686 243.976701 -34.471785 216.252076 -25.109043 C 199.708202 -19.473217 181.891721 -10.746778 168.983863 0.706674 C 153.712594 14.341735 151.258283 26.249689 152.258187 31.158311 C 155.894204 48.792991 181.346319 60.246443 191.527165 68.700181 C 190.981762 68.972882 190.52726 69.245583 190.072758 69.427384 C 184.982335 71.881695 165.620548 81.517139 160.711926 91.788885 C 155.257901 103.333237 161.62093 111.696075 165.802348 112.78688 C 178.892008 116.331996 192.345268 110.059867 199.617301 99.788121 C 206.798434 89.516375 205.98033 76.154014 202.617015 70.063687 L 202.526114 69.881886 L 206.525732 67.609376 C 209.070944 66.154969 211.616155 64.791463 213.888666 63.609758 C 212.61606 66.882173 211.707056 70.69999 211.252554 76.335815 C 210.707151 82.971545 213.525064 91.425283 217.251981 94.788598 C 218.888188 96.243005 220.887997 96.333905 222.069702 96.333905 C 226.432922 96.333905 228.341831 92.87969 230.523441 88.880072 C 233.159553 83.880549 235.522963 78.062923 235.522963 78.062923 C 235.522963 78.062923 232.61415 93.697794 240.613386 93.697794 C 243.6131 93.697794 246.521913 90.061777 247.885419 88.243769 C 247.885419 88.243769 247.885419 88.152869 248.06722 87.880167 C 248.430821 87.425665 248.521722 87.152964 248.521722 87.152964 C 249.703427 85.153155 252.339539 80.699035 256.248257 73.336102 C 261.33868 63.882459 266.247302 51.974505 266.247302 51.974505 C 266.247302 51.974505 266.701804 54.883318 268.156211 59.70104 C 268.974314 62.518953 270.883223 65.609567 272.337629 68.60928 C 271.155924 70.245488 270.428721 71.154492 270.428721 71.154492 L 270.519621 71.154492 C 269.519717 72.427098 268.519812 73.699703 267.338107 74.972309 C 263.338489 79.51733 258.611667 84.698653 257.975365 86.15306 C 257.248161 87.971068 257.339062 89.243673 258.793468 90.334478 C 259.884273 91.061682 261.793182 91.152582 263.792991 91.061682 C 267.338107 90.78898 269.883318 89.970877 271.155924 89.425474 C 273.064833 88.789171 275.337343 87.789267 277.518953 86.24396 C 281.42767 83.516948 283.791081 79.60823 283.60928 74.336006 C 283.427479 71.427193 282.518475 68.60928 281.24587 65.882268 C 281.609471 65.427766 281.973073 64.973264 282.336675 64.427861 C 288.517902 55.792322 293.335624 46.33868 293.335624 46.33868 C 293.335624 46.33868 293.790126 49.247493 295.244533 53.974314 C 295.971736 56.428625 297.426143 59.064737 298.789649 61.700849 C 292.972023 66.24587 289.336006 71.427193 288.0634 74.881409 C 285.79089 81.244437 287.608898 84.15325 290.972214 84.789553 C 292.517521 85.062255 294.69913 84.425952 296.335338 83.789649 C 298.426047 83.153346 300.880358 82.062541 303.152869 80.426334 C 307.061586 77.699321 310.879403 73.790604 310.606702 68.60928 C 310.515802 66.24587 309.879499 63.882459 308.970495 61.609949 C 313.879117 59.70104 320.333046 58.519335 328.423183 59.519239 C 345.876061 61.428148 349.330277 71.790795 348.693974 76.154014 C 347.966771 80.517234 344.330754 82.880645 343.149049 83.607848 C 341.876443 84.335051 341.512842 84.607753 341.603742 85.153155 C 341.785543 85.880358 342.330945 85.880358 343.42175 85.698557 C 344.876157 85.516757 352.602692 82.153441 352.875393 74.154205 C 353.329895 63.882459 343.149049 52.701708 324.968967 52.792609 Z M 190.345459 95.879403 C 184.527833 101.969731 176.437696 104.242241 172.983481 102.242432 C 169.256564 100.242623 170.710971 91.334383 177.801203 84.971354 C 182.164422 81.062637 187.709347 77.517521 191.436264 75.24501 C 192.254368 74.790508 193.526974 74.063305 194.98138 73.245201 C 195.254081 73.0634 195.435882 72.9725 195.435882 72.9725 C 195.708583 72.8816 195.981285 72.699799 196.253986 72.517998 C 198.890098 81.608039 196.435787 89.607275 190.345459 95.879403 Z M 232.52325 68.60928 C 230.523441 73.245201 226.251121 85.244055 223.70591 84.607753 C 221.5243 84.06235 220.160794 74.972309 223.251408 65.973168 C 224.887615 61.428148 228.16003 56.065024 230.159839 53.974314 C 233.341353 50.610999 236.795569 49.520194 237.613673 50.8837 C 238.704478 52.701708 233.795855 65.700467 232.52325 68.60928 Z M 267.338107 84.425952 C 266.429103 84.880454 265.610999 85.153155 265.338298 84.971354 C 265.065597 84.789553 265.610999 84.244151 265.610999 84.244151 C 265.610999 84.244151 269.974219 79.790031 271.701327 77.699321 C 272.701231 76.517616 273.882936 75.15411 275.155542 73.517902 L 275.155542 73.972405 C 275.155542 79.426429 269.701518 82.971545 267.338107 84.425952 Z M 294.153728 78.608325 C 293.517425 78.153823 293.608325 76.790317 295.699035 72.427098 C 296.517139 70.69999 298.426047 67.882077 301.698462 65.155065 C 302.062064 66.24587 302.243864 67.336675 302.243864 68.336579 C 302.243864 75.063209 297.153441 77.608421 294.153728 78.608325 Z M 294.153728 78.608325 " transform="matrix(0.0429729,0,0,0.0429729,0,9.239163)"/>
</g>
</svg>

<svg xmlns="http://www.w3.org/2000/svg" width="22pt" height="22pt" viewBox="0 0 22 22"><defs><linearGradient id="a" gradientUnits="userSpaceOnUse" x1="254" y1="233.5" x2="254" y2="254.667" gradientTransform="matrix(.04297 0 0 .04297 .455 9.24)"><stop offset="0" stop-opacity=".275"/><stop offset="1" stop-opacity="0"/></linearGradient><radialGradient id="b" gradientUnits="userSpaceOnUse" cx="450.909" cy="189.579" fx="450.909" fy="189.579" r="21.167" gradientTransform="matrix(0 -.05372 -.09669 0 34.02 43.722)"><stop offset="0" stop-opacity=".314"/><stop offset=".222" stop-opacity=".275"/><stop offset="1" stop-opacity="0"/></radialGradient><radialGradient id="c" gradientUnits="userSpaceOnUse" cx="450.909" cy="189.579" fx="450.909" fy="189.579" r="21.167" gradientTransform="matrix(0 .05372 .09669 0 -12.645 -5.175)"><stop offset="0" stop-opacity=".314"/><stop offset=".222" stop-opacity=".275"/><stop offset="1" stop-opacity="0"/></radialGradient><radialGradient id="d" gradientUnits="userSpaceOnUse" cx="450.909" cy="189.579" fx="450.909" fy="189.579" r="21.167" gradientTransform="matrix(0 -.05372 .09669 0 -12.645 43.722)"><stop offset="0" stop-opacity=".314"/><stop offset=".222" stop-opacity=".275"/><stop offset="1" stop-opacity="0"/></radialGradient><radialGradient id="e" gradientUnits="userSpaceOnUse" cx="450.909" cy="189.579" fx="450.909" fy="189.579" r="21.167" gradientTransform="matrix(0 .05372 -.09669 0 34.02 -5.175)"><stop offset="0" stop-opacity=".314"/><stop offset=".222" stop-opacity=".275"/><stop offset="1" stop-opacity="0"/></radialGradient><linearGradient id="f" gradientUnits="userSpaceOnUse" x1="940" y1="1695.118" x2="940" y2="175.118" gradientTransform="rotate(.24) scale(.01137)"><stop offset="0" stop-color="#f48fb1"/><stop offset="1" stop-color="#f8bbd0"/></linearGradient><linearGradient id="g" gradientUnits="userSpaceOnUse" x1="249.189" y1="233.5" x2="249.189" y2="254.667" gradientTransform="matrix(.02055 0 0 .0752 10.342 -11.248)"><stop offset="0" stop-opacity=".275"/><stop offset="1" stop-opacity="0"/></linearGradient><linearGradient id="h" gradientUnits="userSpaceOnUse" x1="338.667" y1="233.5" x2="338.667" y2="-168.667" gradientTransform="matrix(.04297 0 0 .04297 0 9.24)"><stop offset="0" stop-color="#ec407a"/><stop offset="1" stop-color="#f06292"/></linearGradient><linearGradient id="i" gradientUnits="userSpaceOnUse" x1="248.708" y1="233.5" x2="243.417" y2="-168.667" gradientTransform="matrix(1.14105 0 0 1.14105 -31.893 -8.592)"><stop offset="0" stop-color="#ec407a"/><stop offset="1" stop-color="#f06292"/></linearGradient></defs><path d="M5.457 19.273h10.461v.91H5.457zm0 0" fill="url(#a)"/><path d="M15.918 19.273h1.82v-.91h-1.82zm0 0" fill="url(#b)"/><path d="M5.457 19.273h-1.82v.91h1.82zm0 0" fill="url(#c)"/><path d="M5.457 19.273h-1.82v-.91h1.82zm0 0" fill="url(#d)"/><path d="M15.918 19.273h1.82v.91h-1.82zm0 0" fill="url(#e)"/><path d="M12.746 1.992h-8.2a.909.909 0 0 0-.91.91v15.461c0 .504.407.91.91.91h12.282c.504 0 .91-.406.91-.91V6.98zm0 0" fill="url(#f)"/><path d="M12.734 6.313h4.32l.684.68v.91h-5.004zm0 0" fill="url(#g)"/><path d="M3.637 18.012v.351c0 .504.406.91.91.91h12.281c.504 0 .91-.406.91-.91v-.351c0 .504-.406.91-.91.91H4.547a.909.909 0 0 1-.91-.91zm0 0" fill-opacity=".235"/><path d="M4.547 1.992a.909.909 0 0 0-.91.91v.34c0-.504.406-.91.91-.91h8.2l4.991 4.988v-.34l-4.992-4.988zm0 0" fill="#fff" fill-opacity=".392"/><path d="M17.738 6.98l-4.992-4.988V6.07c0 .504.406.91.91.91zm0 0" fill="url(#h)"/><path d="M12.746 5.855v.215c0 .504.406.91.91.91h4.082l-.215-.214h-3.867a.909.909 0 0 1-.91-.91zm0 0" fill-opacity=".235"/><path d="M12.746 1.992v.34l4.649 4.648h.343zm0 0" fill="#fff" fill-opacity=".392"/><path d="M12.746 1.926c-.035 0-.062.031-.062.066V6.07c0 .54.433.973.972.973h4.082a.068.068 0 0 0 .059-.04.068.068 0 0 0-.016-.07l-4.988-4.988a.065.065 0 0 0-.047-.02zm.066.222l4.77 4.766h-3.926a.84.84 0 0 1-.844-.844zm0 0" fill="#212121"/><path d="M4.547 1.926a.974.974 0 0 0-.973.976v15.461c0 .54.434.973.973.973h12.281a.97.97 0 0 0 .973-.973V6.98a.072.072 0 0 0-.02-.046l-4.988-4.989a.065.065 0 0 0-.047-.02zm0 .129h8.176l4.949 4.953v11.355a.84.84 0 0 1-.844.844H4.547a.84.84 0 0 1-.844-.844V2.903c0-.473.375-.848.844-.848zm0 0" fill="#212121"/><path d="M324.969 52.702c-7 .09-13.09 1.636-18.18 4-1.909-3.546-3.818-6.636-4.09-9-.364-2.636-.819-4.272-.364-7.545.454-3.181 2.363-7.726 2.363-8.09 0-.363-.363-2-4.454-2.09-4 0-7.545.818-7.908 1.818-.364 1-1.182 3.272-1.727 5.726-.637 3.455-8.09 15.908-12.272 22.453-1.363-2.545-2.545-4.727-2.727-6.545-.364-2.727-.818-4.363-.364-7.545.364-3.272 2.364-7.817 2.364-8.18 0-.364-.455-2-4.454-2-4.09-.092-7.545.727-7.909 1.726-.454 1-.818 3.455-1.727 5.727-.818 2.364-10.635 23.089-13.18 28.543-1.273 2.727-2.455 5-3.273 6.454-.818 1.545 0 .09-.09.273-.728 1.272-1.091 2-1.091 2v.09c-.546.91-1.182 1.818-1.455 1.818-.182 0-.545-2.545.091-5.908 1.455-7.272 5-18.544 5-18.908 0-.181.636-2.181-2.273-3.181-2.909-1-3.909.636-4.181.636-.182 0-.364.637-.364.637s3.182-12.636-6.09-12.636c-5.818 0-13.817 6-17.817 11.454-2.454 1.363-7.817 4.09-13.453 7-2.182 1.18-4.454 2.363-6.545 3.453l-.454-.454c-11.181-11.454-31.906-19.453-31.088-34.815.363-5.545 2.363-20.27 39.905-38.087 30.724-14.544 55.267-10.545 59.54-1.636 6.09 12.726-13.09 36.36-45.087 39.723-12.09 1.273-18.543-3.182-20.18-4.818-1.636-1.818-1.909-1.909-2.545-1.545-1 .545-.364 2.09 0 3 1 2.363 4.909 6.545 11.544 8.635 5.909 1.91 20.18 2.909 37.451-3.454 19.271-7.181 34.36-26.997 29.998-43.541-4.545-16.817-33.906-22.362-61.63-12.999-16.545 5.636-34.361 14.362-47.27 25.816-15.27 13.635-17.725 25.543-16.725 30.451 3.636 17.635 29.088 29.088 39.27 37.542-.546.273-1 .546-1.455.727-5.09 2.455-24.452 12.09-29.361 22.362-5.454 11.544.909 19.907 5.09 20.998 13.09 3.545 26.543-2.727 33.815-12.999 7.181-10.272 6.363-23.634 3-29.724l-.09-.182 3.999-2.273a213.59 213.59 0 0 1 7.363-4c-1.273 3.273-2.182 7.091-2.636 12.727-.546 6.636 2.272 15.09 5.999 18.453 1.636 1.454 3.636 1.545 4.818 1.545 4.363 0 6.272-3.454 8.453-7.454 2.637-5 5-10.817 5-10.817s-2.909 15.635 5.09 15.635c3 0 5.909-3.636 7.272-5.454 0 0 0-.091.182-.364.364-.454.455-.727.455-.727 1.181-2 3.818-6.454 7.726-13.817 5.09-9.454 10-21.361 10-21.361s.454 2.908 1.908 7.726c.818 2.818 2.727 5.909 4.182 8.908-1.182 1.636-1.91 2.545-1.91 2.545h.092c-1 1.273-2 2.546-3.182 3.818-4 4.545-8.726 9.727-9.363 11.181-.727 1.818-.636 3.09.818 4.181 1.091.728 3 .819 5 .728 3.545-.273 6.09-1.091 7.363-1.637 1.909-.636 4.181-1.636 6.363-3.181 3.909-2.727 6.272-6.636 6.09-11.908-.182-2.909-1.09-5.727-2.363-8.454.363-.454.727-.909 1.09-1.454 6.182-8.636 11-18.09 11-18.09s.454 2.91 1.909 7.636c.727 2.455 2.181 5.09 3.545 7.727-5.818 4.545-9.454 9.726-10.727 13.18-2.272 6.363-.454 9.272 2.91 9.909 1.545.272 3.726-.364 5.362-1a23.669 23.669 0 0 0 6.818-3.364c3.909-2.727 7.726-6.635 7.454-11.817-.091-2.363-.728-4.727-1.637-7 4.91-1.908 11.363-3.09 19.453-2.09 17.453 1.91 20.907 12.272 20.271 16.635-.727 4.363-4.363 6.727-5.545 7.454-1.273.727-1.636 1-1.545 1.545.182.727.727.727 1.818.546 1.454-.182 9.18-3.546 9.453-11.545.455-10.272-9.726-21.452-27.906-21.361zM190.345 95.879c-5.817 6.09-13.907 8.363-17.362 6.363-3.726-2-2.272-10.908 4.818-17.27 4.363-3.91 9.908-7.454 13.635-9.727.818-.454 2.091-1.182 3.545-2 .273-.182.455-.273.455-.273.273-.09.545-.272.818-.454 2.636 9.09.182 17.09-5.909 23.361zm42.178-27.27c-2 4.636-6.272 16.635-8.817 15.999-2.182-.546-3.545-9.636-.455-18.635 1.637-4.545 4.909-9.908 6.909-11.999 3.181-3.363 6.636-4.454 7.454-3.09 1.09 1.818-3.818 14.816-5.09 17.725zm34.815 15.817c-.909.454-1.727.727-2 .545-.272-.181.273-.727.273-.727s4.363-4.454 6.09-6.545c1-1.181 2.182-2.545 3.455-4.181v.454c0 5.454-5.454 9-7.818 10.454zm26.816-5.818c-.637-.454-.546-1.818 1.545-6.18.818-1.728 2.727-4.546 6-7.273.363 1.09.545 2.182.545 3.182 0 6.726-5.09 9.271-8.09 10.271zm0 0" transform="matrix(.04297 0 0 .04297 0 9.24)" fill="url(#i)" stroke-width="3" stroke="#212121"/></svg>
